X: 1
M: 3/4
L: 1/8
K: G
V: 1
|:\
d4 (c/B/A/G/) | (A3 B/c/) B2 | (3AcA G2 TF2 | {F2}G4 z2 |\
|:\
e2 =ceac | d2 BdgB | {d}cB/A/ G2 TF2 | {F2}G6 :|
V: 2 clef=bass middle=d
|:\
"G"g6 | "D"f2 d2 "G"g2 | "Am"c2 "G"d2 "D"D2 | "G"G2 Bd G2 |\
"G"g2 "D"d2 "G"G2 | "D"d2 f2 "D7"d2 | "G"g4 G2 | "D"d2 D2 z2 :|
|:\
"D"d2 f2 "G"g2 | "Am"a2 "D7"f2 d2 | "G"g2 G2 z2 | "G"g4 b2 |\
"Am"c'2 z2 c'2 | "G"b2 z2 b2 | "Am"c'2 "G"d'2 "D"d2 | "G"g2 G4 :|

